X:3
T: The Fireside Reel
S: David Young's Collection of the newest Country Dances Performed in Scotland, 1749
Z: Pete Stewart
S: "Pete Stewart" <pete:wintonpottery.co.uk> tradtunes 2013-4-26
M: C|
L: 1/8
K: C
c|GcEc Dd2B|GcEc GcEc|FcEc Dd2 A/B/|cG2f TE>DC:|]
g|ecgc eddg|ecgc acgc|f(aTgf) edde|GAc/d/Te2d:|]
